evolvere-2-blue-mono/apps/16/kompare.svg

<?xml version="1.0" encoding="UTF-8"?>
<!-- Created with Inkscape (http://www.inkscape.org/) -->
<svg width="16" height="16" version="1.1" xmlns="http://www.w3.org/2000/svg" xmlns:cc="http://creativecommons.org/ns#" xmlns:dc="http://purl.org/dc/elements/1.1/" xmlns:rdf="http://www.w3.org/1999/02/22-rdf-syntax-ns#">
	<defs>
		<style id="current-color-scheme" type="text/css">.ColorScheme-Text {color:#090d11;}.ColorScheme-Background{color:#ffffff;}</style>
	</defs>
	<metadata>
		<rdf:RDF>
			<cc:Work rdf:about="">
				<dc:format>image/svg+xml</dc:format>
				<dc:type rdf:resource="http://purl.org/dc/dcmitype/StillImage"/>
			</cc:Work>
		</rdf:RDF>
	</metadata>
	<path id="c" class="ColorScheme-Text" d="m4 1v2h9v9h2v-11zm-3 3v11h11v-2h-9v-9zm3 0v8h8v-8zm2 2h4v1h-4zm0 2h4v1h-4z" style="fill-opacity:.75;fill:currentColor"/>
	<path class="ColorScheme-Background" d="m3 0v3h-3v13h13v-3h3v-13h-12zm1 1h11v11h-2v-9h-9zm-3 3h2v9h9v2h-11zm3 0h8v8h-8zm2 2v1h4v-1zm0 2v1h4v-1z" style="fill-opacity:.5;fill:currentColor"/>
</svg>

<?xml version="1.0" encoding="UTF-8" standalone="no"?>
<!-- Created with Inkscape (http://www.inkscape.org/) -->

<svg
   xmlns:dc="http://purl.org/dc/elements/1.1/"
   xmlns:cc="http://creativecommons.org/ns#"
   xmlns:rdf="http://www.w3.org/1999/02/22-rdf-syntax-ns#"
   xmlns:svg="http://www.w3.org/2000/svg"
   xmlns="http://www.w3.org/2000/svg"
   xmlns:sodipodi="http://sodipodi.sourceforge.net/DTD/sodipodi-0.dtd"
   xmlns:inkscape="http://www.inkscape.org/namespaces/inkscape"
   width="16"
   height="16"
   id="svg27665"
   version="1.1"
   inkscape:version="0.48.4 r9939"
   sodipodi:docname="kompare.svg">
  <defs
     id="defs27667" />
  <sodipodi:namedview
     id="base"
     pagecolor="#ffffff"
     bordercolor="#666666"
     borderopacity="1.0"
     inkscape:pageopacity="0.0"
     inkscape:pageshadow="2"
     inkscape:zoom="31.678384"
     inkscape:cx="12.628483"
     inkscape:cy="5.7980043"
     inkscape:document-units="px"
     inkscape:current-layer="layer1"
     showgrid="true"
     inkscape:window-width="1920"
     inkscape:window-height="1016"
     inkscape:window-x="-5"
     inkscape:window-y="27"
     inkscape:window-maximized="1"
     inkscape:snap-bbox="true"
     inkscape:bbox-paths="true"
     inkscape:bbox-nodes="true"
     inkscape:snap-bbox-edge-midpoints="true"
     inkscape:snap-bbox-midpoints="true"
     inkscape:object-paths="true"
     inkscape:snap-intersection-paths="true"
     inkscape:object-nodes="true"
     inkscape:snap-smooth-nodes="true"
     inkscape:snap-midpoints="true"
     inkscape:snap-object-midpoints="true"
     inkscape:snap-center="true"
     inkscape:snap-global="true"
     showguides="true"
     inkscape:guide-bbox="true"
     fit-margin-top="0"
     fit-margin-left="0"
     fit-margin-right="0"
     fit-margin-bottom="0"
     inkscape:showpageshadow="false">
    <inkscape:grid
       type="xygrid"
       id="grid3126"
       empspacing="5"
       visible="true"
       enabled="true"
       snapvisiblegridlinesonly="true"
       originx="-0.99999711px"
       originy="24px" />
  </sodipodi:namedview>
  <metadata
     id="metadata27670">
    <rdf:RDF>
      <cc:Work
         rdf:about="">
        <dc:format>image/svg+xml</dc:format>
        <dc:type
           rdf:resource="http://purl.org/dc/dcmitype/StillImage" />
        <dc:title />
      </cc:Work>
    </rdf:RDF>
  </metadata>
  <g
     inkscape:label="Camada 1"
     inkscape:groupmode="layer"
     id="layer1"
     transform="translate(3363.4172,-1858.5163)">
    <path
       style="color:#000000;fill:#27303a;fill-opacity:0.753280819999999968;fill-rule:nonzero;stroke:none;stroke-width:1.41430247;marker:none;visibility:visible;display:inline;overflow:visible;enable-background:accumulate"
       d="M 4 1 L 4 3 L 13 3 L 13 12 L 15 12 L 15 1 L 4 1 z M 1 4 L 1 15 L 12 15 L 12 13 L 3 13 L 3 4 L 1 4 z M 4 4 L 4 12 L 12 12 L 12 4 L 4 4 z M 6 6 L 10 6 L 10 7 L 6 7 L 6 6 z M 6 8 L 10 8 L 10 9 L 6 9 L 6 8 z "
       transform="translate(-3363.4172,1858.5163)"
       id="path3040" />
    <path
       style="font-size:medium;font-style:normal;font-variant:normal;font-weight:normal;font-stretch:normal;text-indent:0;text-align:start;text-decoration:none;line-height:normal;letter-spacing:normal;word-spacing:normal;text-transform:none;direction:ltr;block-progression:tb;writing-mode:lr-tb;text-anchor:start;baseline-shift:baseline;color:#000000;fill:#f1f3f5;fill-opacity:0.90288714000000003;fill-rule:nonzero;stroke:none;stroke-width:55.46284103;marker:none;visibility:visible;display:inline;overflow:visible;enable-background:accumulate;font-family:Sans;-inkscape-font-specification:Sans"
       d="M 3 0 L 3 1 L 3 3 L 1 3 L 0 3 L 0 4 L 0 15 L 0 16 L 1 16 L 12 16 L 13 16 L 13 15 L 13 13 L 15 13 L 16 13 L 16 12 L 16 1 L 16 0 L 15 0 L 4 0 L 3 0 z M 4 1 L 15 1 L 15 12 L 13 12 L 13 3 L 4 3 L 4 1 z M 1 4 L 3 4 L 3 13 L 12 13 L 12 15 L 1 15 L 1 4 z M 4 4 L 12 4 L 12 12 L 4 12 L 4 4 z M 6 6 L 6 7 L 10 7 L 10 6 L 6 6 z M 6 8 L 6 9 L 10 9 L 10 8 L 6 8 z "
       transform="translate(-3363.4172,1858.5163)"
       id="rect3009" />
  </g>
</svg>
